symbolic/24x24/actions/dialog-messages.svg

<svg xmlns="http://www.w3.org/2000/svg" width="24" height="24"><defs><style id="current-color-scheme" type="text/css"></style></defs><path style="fill:currentColor;color:#323a41" d="M3 2S1 2 1 4v6c0 2 2 2 2 2h5l2 3 2-3h1s2 0 2-2V4c0-2-2-2-2-2z" transform="translate(4 4)"/></svg>

<svg xmlns="http://www.w3.org/2000/svg" width="24" height="24" version="1.1">
 <defs>
  <style id="current-color-scheme" type="text/css">
   .ColorScheme-Text { color:#323a41; } .ColorScheme-Highlight { color:#4285f4; } .ColorScheme-NeutralText { color:#ff9800; } .ColorScheme-PositiveText { color:#4caf50; } .ColorScheme-NegativeText { color:#f44336; }
  </style>
 </defs>
 <g transform="translate(4,4)">
  <path style="fill:currentColor" class="ColorScheme-Text" d="M 3,2 C 3,2 1,2 1,4 V 10 C 1,12 3,12 3,12 H 8 L 10,15 12,12 H 13 C 13,12 15,12 15,10 V 4 C 15,2 13,2 13,2 Z"/>
 </g>
</svg>
